packages/kaspersky-hexa-ui-icons/src/iconsSVGs/32/StatusHighSolid.svg

<svg xmlns="http://www.w3.org/2000/svg" width="32" height="32" fill="none" viewBox="0 0 32 32"><path fill="#000" fill-rule="evenodd" d="M2.8283 13.1716c-1.562 1.5621-1.562 4.0947 0 5.6568l10.3432 10.3432c1.5621 1.5621 4.0947 1.5621 5.6568 0l10.3432-10.3432c1.5621-1.5621 1.5621-4.0947 0-5.6568L18.8283 2.8284c-1.5621-1.562-4.0947-1.562-5.6568 0zM16 10c.5523 0 1 .4477 1 1v6c0 .5523-.4477 1-1 1s-1-.4477-1-1v-6c0-.5523.4477-1 1-1m1 11c0 .5523-.4477 1-1 1s-1-.4477-1-1 .4477-1 1-1 1 .4477 1 1"/></svg>

<svg width="32" height="32" viewBox="0 0 32 32" fill="none" xmlns="http://www.w3.org/2000/svg">
<path fill-rule="evenodd" clip-rule="evenodd" d="M2.82843 13.1716C1.26634 14.7337 1.26633 17.2663 2.82843 18.8284L13.1716 29.1716C14.7337 30.7337 17.2663 30.7337 18.8284 29.1716L29.1716 18.8284C30.7337 17.2663 30.7337 14.7337 29.1716 13.1716L18.8284 2.82843C17.2663 1.26634 14.7337 1.26633 13.1716 2.82843L2.82843 13.1716ZM16 10C16.5523 10 17 10.4477 17 11L17 17C17 17.5523 16.5523 18 16 18C15.4477 18 15 17.5523 15 17L15 11C15 10.4477 15.4477 10 16 10ZM17 21C17 21.5523 16.5523 22 16 22C15.4477 22 15 21.5523 15 21C15 20.4477 15.4477 20 16 20C16.5523 20 17 20.4477 17 21Z" fill="black"/>
</svg>
